X: 1
T: Northside Kitchen
M: 6/8
L: 1/8
R: jig
K: Cmaj
|: E | DGG GAG |FDE {G}FDC | &quot;Var -------------------------------------------------------------&quot;DGG ABc | dgg ^fdc|
{c}BAB G^FG|FDE F2 d| {d} cAG ^FGA| BGG G2:|
|:A| {D}G2 g def|{d}cAF FGA|{D}G2 g def|&quot;Var-------------------------------&quot;~edc de^f|
&quot;-------------------------------------------&quot;{a}g^fg BAB| ~A2 G FGA| {c}BAB {d}cA^F|GAG G2:|
|&quot;Var A3&amp; A4&quot; {c} BAB {e}cBc| def gdc|&quot;Var B4 &amp; B5&quot; efc de^f| ~a3 B2 G|
